archcraft-icons-qogir/files/Qogir/32/apps/preferences-devices-drive-optical-check.svg

<svg width="32" height="32" version="1.1" xmlns="http://www.w3.org/2000/svg">
 <path d="m16 1a15 15 0 0 0-15 15 15 15 0 0 0 15 15 15 15 0 0 0 15-15 15 15 0 0 0-15-15zm0 12.857a2.1429 2.1429 0 0 1 2.1429 2.1429 2.1429 2.1429 0 0 1-2.1429 2.1429 2.1429 2.1429 0 0 1-2.1429-2.1429 2.1429 2.1429 0 0 1 2.1429-2.1429z" opacity=".25" stroke-width="1.0714"/>
 <path d="M16 2A14 14 0 0 0 2 16a14 14 0 0 0 14 14 14 14 0 0 0 14-14A14 14 0 0 0 16 2zm0 12a2 2 0 0 1 2 2 2 2 0 0 1-2 2 2 2 0 0 1-2-2 2 2 0 0 1 2-2z" fill="#e6e6e6"/>
 <path d="m25 19c-3.324 0-6 2.676-6 6s2.676 6 6 6 6-2.676 6-6-2.676-6-6-6z" fill="#42bd53" stroke-width="1.2"/>
 <path d="m25 20c-2.77 0-5 2.23-5 5s2.23 5 5 5 5-2.23 5-5-2.23-5-5-5z" fill="#78e386"/>
 <path d="m27.5 22.5 1 1-4.5 4.5-2.5-2.5 1-1 1.5 1.5z" fill="#fff"/>
 <path d="m16 10a6 6 0 0 0-6 6 6 6 0 0 0 6 6 6 6 0 0 0 6-6 6 6 0 0 0-6-6zm0 3a3 3 0 0 1 3 3 3 3 0 0 1-3 3 3 3 0 0 1-3-3 3 3 0 0 1 3-3z" fill="#b3b3b3"/>
</svg>

<svg xmlns="http://www.w3.org/2000/svg" width="32" height="32"><path d="M16 1A15 15 0 0 0 1 16a15 15 0 0 0 15 15 15 15 0 0 0 15-15A15 15 0 0 0 16 1zm0 12.857A2.143 2.143 0 0 1 18.143 16 2.143 2.143 0 0 1 16 18.143 2.143 2.143 0 0 1 13.857 16 2.143 2.143 0 0 1 16 13.857z" opacity=".25"/><path fill="#e6e6e6" d="M16 2A14 14 0 0 0 2 16a14 14 0 0 0 14 14 14 14 0 0 0 14-14A14 14 0 0 0 16 2zm0 12a2 2 0 0 1 2 2 2 2 0 0 1-2 2 2 2 0 0 1-2-2 2 2 0 0 1 2-2z"/><path fill="#42bd53" d="M25 19c-3.324 0-6 2.676-6 6s2.676 6 6 6 6-2.676 6-6-2.676-6-6-6z"/><path fill="#78e386" d="M25 20c-2.77 0-5 2.23-5 5s2.23 5 5 5 5-2.23 5-5-2.23-5-5-5z"/><path fill="#fff" d="m27.5 22.5 1 1L24 28l-2.5-2.5 1-1L24 26z"/><path fill="#b3b3b3" d="M16 10a6 6 0 0 0-6 6 6 6 0 0 0 6 6 6 6 0 0 0 6-6 6 6 0 0 0-6-6zm0 3a3 3 0 0 1 3 3 3 3 0 0 1-3 3 3 3 0 0 1-3-3 3 3 0 0 1 3-3z"/></svg>
